assets/stickers/emoticons/stickers/imgly_sticker_emoticons_angry.svg

<svg height="62" viewBox="0 0 62 62" width="62" xmlns="http://www.w3.org/2000/svg"><g fill="none"><g transform="translate(0 3)"><path d="m61.3 35.3c0 13-11.9 23.5-30.3 23.5s-30.3-10.5-30.3-23.5 11.9-32.5 30.3-32.5 30.3 19.5 30.3 32.5z" fill="#f7910b"/><path d="m61.3 35.3c0 13-11.9 19.5-30.3 19.5s-30.3-6.5-30.3-19.5 11.9-34.5 30.3-34.5 30.3 21.5 30.3 34.5z" fill="#f7910b"/><path d="m31 .8c18.4 0 30.3 21.5 30.3 34.5s-11.9 19.5-30.3 19.5" fill="#f9a908"/><path d="m61.3 35.3c0 13-11.9 19.5-30.3 19.5s-30.3-6.5-30.3-19.5 11.9-32.5 30.3-32.5 30.3 19.5 30.3 32.5z" fill="#f9a908"/><path d="m.7 35.3c0-13 11.9-32.5 30.3-32.5" fill="#f9c55d"/><path d="m31 2.8c18.4 0 30.3 19.5 30.3 32.5s-11.9 23.5-30.3 23.5" fill="#f7910b"/><path d="m31 2.8c18.4 0 30.3 19.5 30.3 32.5" fill="#ea7103"/><g transform="translate(11 26)"><path d="m15.8 2.6c0 1.2-3.5.7-7.8.7s-7.8.6-7.8-.7c0-1.2 3.5-2.2 7.8-2.2s7.8 1 7.8 2.2z" fill="#f9c55d"/><path d="m39.8 2.6c0 1.2-3.5.7-7.8.7s-7.8.6-7.8-.7c0-1.2 3.5-2.2 7.8-2.2s7.8 1 7.8 2.2z" fill="#f9a908"/></g><ellipse cx="9.3" cy="32.3" fill="#f7910b" rx="1" ry="1"/><ellipse cx="4.8" cy="34.3" fill="#f7910b" rx="1.1" ry="1.1"/><ellipse cx="7.8" cy="30.3" fill="#f7910b" rx="1" ry="1"/><circle cx="12.4" cy="32.1" fill="#f7910b" r="1"/><circle cx="51.6" cy="32.7" fill="#f9a908" r="1"/><circle cx="54.1" cy="34" fill="#f9a908" r="1"/><circle cx="48.8" cy="25.2" fill="#f9a908" r="1"/><circle cx="48.3" cy="36.8" fill="#f9a908" r="1.3"/><circle cx="55.5" cy="36.9" fill="#f9a908" r="1"/><ellipse cx="8.3" cy="36.3" fill="#f7910b" rx="1" ry="1"/><circle cx="9.1" cy="27.9" fill="#f7910b" r="1"/><g fill="#f9a908"><ellipse cx="3.8" cy="14.2" rx="1.1" ry="1.1"/><ellipse cx="7" cy="10.6" rx="1" ry="1"/><circle cx="58.2" cy="16.5" r="1"/><ellipse cx="57.4" cy="13.6" rx="1" ry="1"/><circle cx="60" cy="14.2" r="1"/><ellipse cx="5" cy="17.1" rx="1" ry="1"/></g><g transform="translate(19 29)"><path d="m21.5 16.8c0 2.6-4.2 4.7-9.5 4.7-5.2 0-9.5-2.1-9.5-4.7" fill="#f7910b"/><path d="m23.7 10.3c0 6.7-5.2 9.3-11.7 9.3s-11.7-2.6-11.7-9.3 5.2-10.2 11.7-10.2c6.5.1 11.7 3.6 11.7 10.2z" fill="#c42260"/><path d="m23.5 12.2c-1.4-.3-3-.5-4.6-.5-2.5 0-4.9.4-7 1.2-2.1-.7-4.4-1.2-7-1.2-1.6 0-3.1.2-4.6.5.9 5.3 5.7 7.4 11.5 7.4 6 0 10.8-2.1 11.7-7.4z" fill="#e2446e"/><path d="m23.2 7c-1.2-4.1-5.9-7-11.2-7-5.4 0-10 3-11.2 7z" fill="#99144a"/></g><g transform="translate(15 20)"><path d="m8.5 7.3c-.4-.2-.7-.5-.9-.9-.7-1.9-2.8-2.8-4.7-2.1-.8.3-1.8-.1-2.1-1-.3-.8.1-1.8.9-2.1 3.6-1.4 7.6.4 8.9 4 .3.9-.1 1.8-1 2.1-.3.2-.8.2-1.1 0z" fill="#1e4784"/><path d="m10.7 5.2c.3.9-.1 1.8-1 2.1-.4.2-.9.1-1.3 0-.4-.2-.7-.5-.9-.9-.7-1.9-2.8-2.8-4.7-2.1-.8.3-1.8-.1-2.1-1-.3-.8.1-1.8.9-2.1" fill="#02243e"/></g><g transform="translate(36 20)"><path d="m2.5 7.3c.4-.2.7-.5.9-.9.7-1.9 2.8-2.8 4.7-2.1.8.3 1.8-.1 2.1-1 .3-.8-.1-1.8-.9-2.1-3.6-1.4-7.6.4-8.9 4-.3.9.1 1.8 1 2.1.3.2.8.2 1.1 0z" fill="#1e4784"/><path d="m.3 5.2c-.3.9.1 1.8 1 2.1.4.2.9.1 1.3 0 .4-.2.7-.5.9-.9.7-1.9 2.8-2.8 4.7-2.1.8.3 1.8-.1 2.1-1 .3-.8-.1-1.8-.9-2.1" fill="#02243e"/></g><g fill="#109da0" transform="translate(16 13)"><path d="m10.6 7.3c-1 1.7-2.6-.4-5.3-1.9-2.6-1.5-5.3-1.9-4.3-3.6 1-1.7 3.9-1.8 6.5-.3 2.7 1.6 4 4.2 3.1 5.8z"/><path d="m19.4 7.3c1 1.7 2.6-.4 5.3-1.9 2.6-1.5 5.3-1.9 4.3-3.6-1-1.7-3.9-1.8-6.5-.3-2.7 1.6-4 4.2-3.1 5.8z"/></g></g><path d="m56 10.8 4.5 4.1-6.1-.3.3 6.1-4.1-4.6-4 4.6.3-6.1-6.1.3 4.5-4.1-4.5-4.1 6.1.4-.3-6.1 4 4.5 4.1-4.5-.3 6.1 6.1-.4z" fill="#b20644"/><path d="m55.6 8.8 5.7 2.2-5.8 1.9 2.6 5.5-5.5-2.6-2.1 5.7-2-5.8-5.5 2.6 2.7-5.5-5.7-2.1 5.8-2-2.6-5.5 5.5 2.7 2.1-5.7 1.9 5.7 5.6-2.5z" fill="#ff004f"/></g></svg>

<?xml version="1.0" encoding="UTF-8"?>
<svg width="62px" height="62px" viewBox="0 0 62 62" version="1.1" xmlns="http://www.w3.org/2000/svg" xmlns:xlink="http://www.w3.org/1999/xlink">
    <!-- Generator: Sketch 43.1 (39012) - http://www.bohemiancoding.com/sketch -->
    <title>imgly_sticker_emoticons_angry</title>
    <desc>Created with Sketch.</desc>
    <defs></defs>
    <g id="Page-1" stroke="none" stroke-width="1" fill="none" fill-rule="evenodd">
        <g id="angry" fill-rule="nonzero">
            <g id="Group" transform="translate(0.000000, 3.000000)">
                <path d="M61.3,35.3 C61.3,48.3 49.4,58.8 31,58.8 C12.6,58.8 0.7,48.3 0.7,35.3 C0.7,22.3 12.6,2.8 31,2.8 C49.4,2.8 61.3,22.3 61.3,35.3 Z" id="Shape" fill="#F7910B"></path>
                <path d="M61.3,35.3 C61.3,48.3 49.4,54.8 31,54.8 C12.6,54.8 0.7,48.3 0.7,35.3 C0.7,22.3 12.6,0.8 31,0.8 C49.4,0.8 61.3,22.3 61.3,35.3 Z" id="Shape" fill="#F7910B"></path>
                <path d="M31,0.8 C49.4,0.8 61.3,22.3 61.3,35.3 C61.3,48.3 49.4,54.8 31,54.8" id="Shape" fill="#F9A908"></path>
                <path d="M61.3,35.3 C61.3,48.3 49.4,54.8 31,54.8 C12.6,54.8 0.7,48.3 0.7,35.3 C0.7,22.3 12.6,2.8 31,2.8 C49.4,2.8 61.3,22.3 61.3,35.3 Z" id="Shape" fill="#F9A908"></path>
                <path d="M0.7,35.3 C0.7,22.3 12.6,2.8 31,2.8" id="Shape" fill="#F9C55D"></path>
                <path d="M31,2.8 C49.4,2.8 61.3,22.3 61.3,35.3 C61.3,48.3 49.4,58.8 31,58.8" id="Shape" fill="#F7910B"></path>
                <path d="M31,2.8 C49.4,2.8 61.3,22.3 61.3,35.3" id="Shape" fill="#EA7103"></path>
                <g transform="translate(11.000000, 26.000000)" id="Shape">
                    <path d="M15.8,2.6 C15.8,3.8 12.3,3.3 8,3.3 C3.7,3.3 0.2,3.9 0.2,2.6 C0.2,1.4 3.7,0.4 8,0.4 C12.3,0.4 15.8,1.4 15.8,2.6 Z" fill="#F9C55D"></path>
                    <path d="M39.8,2.6 C39.8,3.8 36.3,3.3 32,3.3 C27.7,3.3 24.2,3.9 24.2,2.6 C24.2,1.4 27.7,0.4 32,0.4 C36.3,0.4 39.8,1.4 39.8,2.6 Z" fill="#F9A908"></path>
                </g>
                <ellipse id="Oval" fill="#F7910B" cx="9.3" cy="32.3" rx="1" ry="1"></ellipse>
                <ellipse id="Oval" fill="#F7910B" cx="4.8" cy="34.3" rx="1.1" ry="1.1"></ellipse>
                <ellipse id="Oval" fill="#F7910B" cx="7.8" cy="30.3" rx="1" ry="1"></ellipse>
                <circle id="Oval" fill="#F7910B" cx="12.4" cy="32.1" r="1"></circle>
                <circle id="Oval" fill="#F9A908" cx="51.6" cy="32.7" r="1"></circle>
                <circle id="Oval" fill="#F9A908" cx="54.1" cy="34" r="1"></circle>
                <circle id="Oval" fill="#F9A908" cx="48.8" cy="25.2" r="1"></circle>
                <circle id="Oval" fill="#F9A908" cx="48.3" cy="36.8" r="1.3"></circle>
                <circle id="Oval" fill="#F9A908" cx="55.5" cy="36.9" r="1"></circle>
                <ellipse id="Oval" fill="#F7910B" cx="8.3" cy="36.3" rx="1" ry="1"></ellipse>
                <circle id="Oval" fill="#F7910B" cx="9.1" cy="27.9" r="1"></circle>
                <ellipse id="Oval" fill="#F9A908" cx="3.8" cy="14.2" rx="1.1" ry="1.1"></ellipse>
                <ellipse id="Oval" fill="#F9A908" cx="7" cy="10.6" rx="1" ry="1"></ellipse>
                <circle id="Oval" fill="#F9A908" cx="58.2" cy="16.5" r="1"></circle>
                <ellipse id="Oval" fill="#F9A908" cx="57.4" cy="13.6" rx="1" ry="1"></ellipse>
                <circle id="Oval" fill="#F9A908" cx="60" cy="14.2" r="1"></circle>
                <ellipse id="Oval" fill="#F9A908" cx="5" cy="17.1" rx="1" ry="1"></ellipse>
                <g transform="translate(19.000000, 29.000000)" id="Shape">
                    <path d="M21.5,16.8 C21.5,19.4 17.3,21.5 12,21.5 C6.8,21.5 2.5,19.4 2.5,16.8" fill="#F7910B"></path>
                    <g>
                        <path d="M23.7,10.3 C23.7,17 18.5,19.6 12,19.6 C5.5,19.6 0.3,17 0.3,10.3 C0.3,3.6 5.5,0.1 12,0.1 C18.5,0.2 23.7,3.7 23.7,10.3 Z" fill="#C42260"></path>
                        <path d="M23.5,12.2 C22.1,11.9 20.5,11.7 18.9,11.7 C16.4,11.7 14,12.1 11.9,12.9 C9.8,12.2 7.5,11.7 4.9,11.7 C3.3,11.7 1.8,11.9 0.3,12.2 C1.2,17.5 6,19.6 11.8,19.6 C17.8,19.6 22.6,17.5 23.5,12.2 Z" fill="#E2446E"></path>
                        <path d="M23.2,7 C22,2.9 17.3,0 12,0 C6.6,0 2,3 0.8,7 L23.2,7 Z" fill="#99144A"></path>
                    </g>
                </g>
                <g transform="translate(15.000000, 13.000000)" id="Shape">
                    <g transform="translate(0.000000, 7.000000)">
                        <g>
                            <path d="M8.5,7.3 C8.1,7.1 7.8,6.8 7.6,6.4 C6.9,4.5 4.8,3.6 2.9,4.3 C2.1,4.6 1.1,4.2 0.8,3.3 C0.5,2.5 0.9,1.5 1.7,1.2 C5.3,-0.2 9.3,1.6 10.6,5.2 C10.9,6.1 10.5,7 9.6,7.3 C9.3,7.5 8.8,7.5 8.5,7.3 Z" fill="#1E4784"></path>
                            <path d="M10.7,5.2 C11,6.1 10.6,7 9.7,7.3 C9.3,7.5 8.8,7.4 8.4,7.3 C8,7.1 7.7,6.8 7.5,6.4 C6.8,4.5 4.7,3.6 2.8,4.3 C2,4.6 1,4.2 0.7,3.3 C0.4,2.5 0.8,1.5 1.6,1.2" fill="#02243E"></path>
                        </g>
                        <g transform="translate(21.000000, 0.000000)">
                            <path d="M2.5,7.3 C2.9,7.1 3.2,6.8 3.4,6.4 C4.1,4.5 6.2,3.6 8.1,4.3 C8.9,4.6 9.9,4.2 10.2,3.3 C10.5,2.5 10.1,1.5 9.3,1.2 C5.7,-0.2 1.7,1.6 0.4,5.2 C0.1,6.1 0.5,7 1.4,7.3 C1.7,7.5 2.2,7.5 2.5,7.3 Z" fill="#1E4784"></path>
                            <path d="M0.3,5.2 C-2.02615702e-15,6.1 0.4,7 1.3,7.3 C1.7,7.5 2.2,7.4 2.6,7.3 C3,7.1 3.3,6.8 3.5,6.4 C4.2,4.5 6.3,3.6 8.2,4.3 C9,4.6 10,4.2 10.3,3.3 C10.6,2.5 10.2,1.5 9.4,1.2" fill="#02243E"></path>
                        </g>
                    </g>
                    <g transform="translate(1.000000, 0.000000)" fill="#109DA0">
                        <path d="M10.6,7.3 C9.6,9 8,6.9 5.3,5.4 C2.7,3.9 -8.8817842e-16,3.5 1,1.8 C2,0.1 4.9,-3.88578059e-16 7.5,1.5 C10.2,3.1 11.5,5.7 10.6,7.3 Z"></path>
                        <path d="M19.4,7.3 C20.4,9 22,6.9 24.7,5.4 C27.3,3.9 30,3.5 29,1.8 C28,0.1 25.1,4.4408921e-16 22.5,1.5 C19.8,3.1 18.5,5.7 19.4,7.3 Z"></path>
                    </g>
                </g>
            </g>
            <polygon id="Shape" fill="#B20644" points="56 10.8 60.5 14.9 54.4 14.6 54.7 20.7 50.6 16.1 46.6 20.7 46.9 14.6 40.8 14.9 45.3 10.8 40.8 6.7 46.9 7.1 46.6 1 50.6 5.5 54.7 1 54.4 7.1 60.5 6.7"></polygon>
            <polygon id="Shape" fill="#FF004F" points="55.6 8.8 61.3 11 55.5 12.9 58.1 18.4 52.6 15.8 50.5 21.5 48.5 15.7 43 18.3 45.7 12.8 40 10.7 45.8 8.7 43.2 3.2 48.7 5.9 50.8 0.2 52.7 5.9 58.3 3.4"></polygon>
        </g>
    </g>
</svg>
